icon-themes/breeze_svg/cmd/32/connectorlinecirclestart.svg

<svg viewBox="0 0 32 32" xmlns="http://www.w3.org/2000/svg"><path d="m7 3.9726562a3 3 0 0 0 -3 3 3 3 0 0 0 3 3 3 3 0 0 0 1.2910156-.2949218l15.9921874 15.9921876s1.381628-1.389057 1.423828-1.404297l-16.0019529-16.0019531a3 3 0 0 0 .2949219-1.2910157 3 3 0 0 0 -3-3zm0 2a1 1 0 0 1 .7167969.3027344c.0901533.0926804.1589515.2008973.2070312.3183594.0003422.0008361.0016132.0011161.0019531.0019531a1 1 0 0 1 0 .0019531c.047636.1179294.0742188.2454346.0742188.375 0 .1380725-.0275219.2690333-.078125.3886719-.0502459.118794-.1232892.2263215-.2128906.3164063a1 1 0 0 1 -.0039063.0039062c-.0877814.0873093-.1934264.156963-.3085937.2070313a1 1 0 0 1 -.015625.0078125c-.1176814.048674-.2455909.0761718-.3808594.0761718-.1326-.00002-.2626425-.0263781-.3828125-.0761718-.1193353-.0494479-.2289367-.1220037-.3222656-.2148438a1 1 0 0 1 -.2949219-.7089844 1 1 0 0 1 1-1z" fill="#4d4d4d"/></svg>

<svg xmlns="http://www.w3.org/2000/svg" viewBox="0 0 32 32">
 <path 
     style="fill:#4d4d4d" 
     d="M 7 3.9726562 A 3 3 0 0 0 4 6.9726562 A 3 3 0 0 0 7 9.9726562 A 3 3 0 0 0 8.2910156 9.6777344 L 24.283203 25.669922 C 24.283203 25.669922 25.664831 24.280865 25.707031 24.265625 L 9.7050781 8.2636719 A 3 3 0 0 0 10 6.9726562 A 3 3 0 0 0 7 3.9726562 z M 7 5.9726562 A 1 1 0 0 1 7.7167969 6.2753906 C 7.8069502 6.368071 7.8757484 6.4762879 7.9238281 6.59375 C 7.9241703 6.5945861 7.9254413 6.5948661 7.9257812 6.5957031 A 1 1 0 0 1 7.9257812 6.5976562 C 7.9734172 6.7155856 8 6.8430908 8 6.9726562 C 8 7.1107287 7.9724781 7.2416895 7.921875 7.3613281 C 7.8716291 7.4801221 7.7985858 7.5876496 7.7089844 7.6777344 A 1 1 0 0 1 7.7050781 7.6816406 C 7.6172967 7.7689499 7.5116517 7.8386036 7.3964844 7.8886719 A 1 1 0 0 1 7.3808594 7.8964844 C 7.263178 7.9451584 7.1352685 7.9726562 7 7.9726562 C 6.8674 7.9726362 6.7373575 7.9462781 6.6171875 7.8964844 C 6.4978522 7.8470365 6.3882508 7.7744807 6.2949219 7.6816406 A 1 1 0 0 1 6 6.9726562 A 1 1 0 0 1 7 5.9726562 z "
     />
</svg>
